X: 21573
T: PLEYEL'S HORNPIPE
R: hornpipe, reel
B: K\"ohler's Violin Repository, v.2, 1885 p.157 #3
F: http://www.archive.org/details/klersviolinrepos02rugg
Z: 2012 John Chambers <jc:trillian.mit.edu>
M: C|
L: 1/8
K: G
|:\
v(G>A)B>c d>Bc>e | d2B2 G4 | (F>G)A>B c>AB>G | A2{^c}d2 D4 |\
 (G>A)B>c d>Bc>e | d2g2 b4 | (a>b)a>g f>ga>f | g2g2 g4 :|
|:\
v(g>f)g>d B2B2 | (d>^c)d>B G2G2 | (F>G)A>B c>AB>G | A2{^c}d2 D4 |\
 (g>f)g>d B2B2 | (d>^c)d>B G2G2 | (e>f)g>e f>ga>f | g2b2 g4 :|

%%sep 2 1 500

